X: 451
T: Alasdair Martin
C: Bert Murray
R: jig
B: Bert Murray's "Bon Accord Collection" 1999 p.45
%
Z: 2011 John Chambers <jc:trillian.mit.edu>
N: This tune was written for Alasdair Martin of Taigh na Teud Music Publishers.
M: 6/8
L: 1/8
K: Bm
|:\
vBcB fed | BcB fed | cAc ece | aec ABc |\
BcB fed | cBc Ace | (f<a)f ece | fec B3 :|
def BBB | fed fed | (c2e) (A2c) | afa ecA |\
def BBB | def fed | cAc ece | aec (B2c) |
def (B2d) | fed fed | cde (a2f) | ecA ABc |\
d3 e3 | fed fed | cAc ece | aec B3 |]
